cryengine.svg

<svg fill="currentColor" viewBox="0 0 24 24"><path d="M23.03 12.5c-.03.5-2.12 2.73-5.21 3.74-3.77 1.26-9.85.79-9.85-3.94 0-2.22 1.81-4.03 4.03-4.03 2.25 0 4.05 1.82 4.05 4.04 0 1.08-.47 2.13-1.18 2.87.67-.01 3.07-.18 5.34-2.06.25-.24.41-.44.48-.57.02-.05.05-.09.04-.15 0-.48-2.61-4.21-8.01-5.28 6.5.34 10.28 4.2 10.31 5.28zM12 10c-1.26 0-2.29 1.04-2.29 2.3A2.29 2.29 0 0 0 12 14.59c1.27 0 2.29-1.02 2.29-2.29 0-1.26-1.02-2.3-2.29-2.3m-8.69 2.34v.08c.1.52 1.51 2.99 6.97 4.46-6.32-.51-9.16-3.6-9.24-4.46h-.01v-.07c0-.85 3.93-4.77 9.89-5.2-4.78 1.11-7.61 4.72-7.61 5.19"/></svg>

<svg  viewBox="0 0 24 24" fill="currentColor"><path  d="M23.03,12.4M23.03,12.5V12.5C23,13 20.91,15.23 17.82,16.24C14.05,17.5 7.97,17.03 7.97,12.3C7.97,10.08 9.78,8.27 12,8.27C14.25,8.27 16.05,10.09 16.05,12.31C16.05,13.39 15.58,14.44 14.87,15.18C15.54,15.17 17.94,15 20.21,13.12C20.46,12.88 20.62,12.68 20.69,12.55C20.71,12.5 20.74,12.46 20.73,12.4C20.73,11.92 18.12,8.19 12.72,7.12C19.22,7.46 23,11.32 23.03,12.4V12.5H23.03M12,10C10.74,10 9.71,11.04 9.71,12.3C9.71,13.57 10.74,14.59 12,14.59C13.27,14.59 14.29,13.57 14.29,12.3C14.29,11.04 13.27,10 12,10M3.31,12.34C3.31,12.34 3.31,12.31 3.31,12.42V12.42C3.41,12.94 4.82,15.41 10.28,16.88C3.96,16.37 1.12,13.28 1.04,12.42H1.03C1.03,12.31 1.03,12.36 1.03,12.35C1.03,11.5 4.96,7.58 10.92,7.15C6.14,8.26 3.31,11.87 3.31,12.34V12.34Z"/></svg>
